packages/ffe-icons/icons/open/300/sm/vacuum.svg

<svg xmlns="http://www.w3.org/2000/svg" height="20" viewBox="0 -960 960 960" width="20"><path d="M168.045-106.001q-45.814 0-77.93-32.07-32.114-32.07-32.114-77.884t32.07-77.929q32.07-32.115 77.884-32.115t77.929 32.07q32.115 32.07 32.115 77.884t-32.07 77.929q-32.07 32.115-77.884 32.115ZM168-157.999q24.246 0 41.124-16.877 16.877-16.878 16.877-41.124 0-24.246-16.877-41.124-16.878-16.877-41.124-16.877-24.246 0-41.124 16.877-16.877 16.878-16.877 41.124 0 24.246 16.877 41.124 16.878 16.877 41.124 16.877ZM502.614-480v309.692q0 26.527-18.891 45.417-18.89 18.89-45.417 18.89h-85.538q-11.05 0-18.525-7.418-7.474-7.418-7.474-18.384 0-10.966 7.474-18.581 7.475-7.615 18.525-7.615h85.538q5.385 0 8.847-3.462 3.462-3.462 3.462-8.847V-480q0-33.825-24.088-57.913-24.087-24.088-57.913-24.088H170.308q-5.385 0-8.847 3.462-3.462 3.462-3.462 8.847v124.54q0 11.049-7.418 18.524-7.418 7.475-18.384 7.475-10.966 0-18.581-7.475t-7.615-18.524v-124.54q0-26.527 18.89-45.417t45.417-18.89h67.693v-131.954q0-64.862 45.457-110.454 45.458-45.592 110.883-45.592 47.582 0 86.24 25.773 38.657 25.774 56.803 69.072l277.077 649.155H876q11.05 0 18.524 7.418 7.475 7.418 7.475 18.384 0 10.966-7.475 18.581-7.474 7.615-18.524 7.615H660q-11.05 0-18.524-7.418-7.475-7.418-7.475-18.384 0-10.966 7.475-18.581 7.474-7.615 18.524-7.615h98.386L488.847-786.846q-12.177-28.906-37.786-46.03-25.608-17.125-56.892-17.125-43.015 0-73.593 30.577-30.577 30.578-30.577 73.78v131.645h78.615q56.154 0 95.077 38.923 38.923 38.922 38.923 95.076ZM304.307-360Z"/></svg>

<svg xmlns="http://www.w3.org/2000/svg" height="20" viewBox="0 -960 960 960" width="20"><path d="M168.05-106q-45.82 0-77.93-32.07Q58-170.14 58-215.95q0-45.82 32.07-77.93Q122.14-326 167.95-326q45.82 0 77.93 32.07Q278-261.86 278-216.05q0 45.82-32.07 77.93Q213.86-106 168.05-106Zm-.05-52q24.25 0 41.12-16.88Q226-191.75 226-216q0-24.25-16.88-41.12Q192.25-274 168-274q-24.25 0-41.12 16.88Q110-240.25 110-216q0 24.25 16.88 41.12Q143.75-158 168-158Zm334.61-322v309.69q0 26.53-18.89 45.42T438.31-106h-85.54q-11.05 0-18.53-7.42-7.47-7.42-7.47-18.38 0-10.97 7.47-18.58 7.48-7.62 18.53-7.62h85.54q5.38 0 8.84-3.46t3.46-8.85V-480q0-33.83-24.08-57.91Q402.44-562 368.61-562h-198.3q-5.39 0-8.85 3.46t-3.46 8.85v124.54q0 11.05-7.42 18.52-7.42 7.48-18.38 7.48-10.97 0-18.58-7.48-7.62-7.47-7.62-18.52v-124.54q0-26.53 18.89-45.42T170.31-614H238v-131.95q0-64.86 45.46-110.46Q328.92-902 394.34-902q47.58 0 86.24 25.77 38.66 25.78 56.8 69.08L814.46-158H876q11.05 0 18.52 7.42 7.48 7.42 7.48 18.38 0 10.97-7.48 18.58Q887.05-106 876-106H660q-11.05 0-18.52-7.42-7.48-7.42-7.48-18.38 0-10.97 7.48-18.58Q648.95-158 660-158h98.39L488.85-786.85q-12.18-28.9-37.79-46.03Q425.45-850 394.17-850q-43.02 0-73.59 30.58Q290-788.85 290-745.64V-614h78.61q56.16 0 95.08 38.92 38.92 38.93 38.92 95.08Zm-198.3 120Z"/></svg>
